X: 40970
T: Trip To Dingle, The
R: polka
M: 2/4
K: Gmajor
|:A|GA/B/ dd|de B2-|Bg ed|e/f/e/d/ BG|
EF/E/ DE|GA Bd|de BA|1 G2 G:|2 G2 G2||
|:ef/e/ de|gb B2|AB/A/ AG|A/B/A/G/ ED|
[1 ef/e/ de|gb B2|A/B/A/G/ BA|G2 G2:|
[2 EF/E/ DE|GA Bd|de BA|G2- G||

